X: 82
T:Lishman's 2nd Hornpipe,aka. BF13.081
M:4/4
Q:160
S:J.Lishman()MS,c1825,Lakes,Browne Coll.
R:Hornpipe
O:England
A:Lakes
N:Untitled in MS..My Title..CGP
Z:vmp.Chris Partington
K:Bb
F|BABcd2gf|edcB ABcd|ecdBG2gf|edcB AcAF|!
BABcd2gf|edcB ABce|dfdB cecA|B2B2B2:|!
|:c-B|Acf2dfb2|gecB ABcd|ecdBG2gf|edcB AcAF|!
Bdf2dfb2|gecB ABce|dfdB cecA|B2B2B2:|]
W:Untitled in MS ||
